src/shared/assets/images/plus.svg

<svg width="17" height="17" viewBox="0 0 17 17" fill="none" xmlns="http://www.w3.org/2000/svg">
<path d="M0 8.05664C0 8.29753 0.086263 8.50261 0.258789 8.67188C0.431315 8.84115 0.634766 8.92578 0.869141 8.92578H7.1875V15.2441C7.1875 15.4785 7.27214 15.682 7.44141 15.8545C7.61068 16.027 7.81575 16.1133 8.05664 16.1133C8.29753 16.1133 8.50423 16.027 8.67676 15.8545C8.84929 15.682 8.93555 15.4785 8.93555 15.2441V8.92578H15.2441C15.4785 8.92578 15.682 8.84115 15.8545 8.67188C16.027 8.50261 16.1133 8.29753 16.1133 8.05664C16.1133 7.81575 16.027 7.60905 15.8545 7.43652C15.682 7.26399 15.4785 7.17773 15.2441 7.17773H8.93555V0.869141C8.93555 0.634766 8.84929 0.431315 8.67676 0.258789C8.50423 0.086263 8.29753 0 8.05664 0C7.81575 0 7.61068 0.086263 7.44141 0.258789C7.27214 0.431315 7.1875 0.634766 7.1875 0.869141V7.17773H0.869141C0.634766 7.17773 0.431315 7.26399 0.258789 7.43652C0.086263 7.60905 0 7.81575 0 8.05664Z" fill="white"/>
</svg>

<svg xmlns="http://www.w3.org/2000/svg" width="17" height="17" fill="none"><path fill="#fff" d="M0 8.057q0 .36.259.615t.61.254h6.319v6.318q0 .352.253.61a.83.83 0 0 0 .616.26q.36 0 .62-.26a.84.84 0 0 0 .259-.61V8.926h6.308a.84.84 0 0 0 .61-.254.83.83 0 0 0 .26-.615.85.85 0 0 0-.26-.62.84.84 0 0 0-.61-.26H8.936V.87a.84.84 0 0 0-.26-.61.85.85 0 0 0-.62-.259.83.83 0 0 0-.615.259.84.84 0 0 0-.253.61v6.309H.869a.84.84 0 0 0-.61.259.85.85 0 0 0-.259.62"/></svg>
